!!!Genre:	Skotshne
!!!Mode:	Freygish
!!!Edition:	2001
!!!Listening/dance:	listening
!!!Free rhythm?:	No
!!!Secondary Modes:	All freygish
!!!One_Mode:	no
**kern
*I"P1
*clefG2
*k[b-e-a-]
*G:frey
*M2/4
*>A
=1
16gLL
16a-J
8bnJ
8bL
8bJ
=2
8bnL
(8qdd/
8ccJ)
8ccL
8ccJ
=3
(32bnLLL
32cc
32b
32ccJ
16b
16a-JJ)
16gLL
16a-
16b
16ccJJ
=4
(32bnLLL
32cc
32b
32ccJ
16b
16a-JJ)
16bLL
16a-
16g
16fJJ
=5
16gLL
16a-JJ
4bn
8b
=6
(8qdd/
4cc)
[4ff
=7
8ffL]
8ee-
8dd
16qqee-/LL
16qqdd/JJ
8ccJ
=8
16.bnLL
32cck
16b
16a-JJ
4g
=9:|!
(8qdd/
4cc)
[4ff
=10
16ffLL]
16ee-
16dd
16ccJJ
16bnLL
16cc
16dd
16ee-JJ
=11
32ddLLL
32ee-
32dd
32ccJ
16bn
16a-JJ
4g
*>bM
*c:
=12!|:
*>B
8ccL
8ddJ
(8qff/
[4ee-)
=13
16ee-LL]
16dd
16ff
16ee-JJ
24ddLL
24ee-
24ddJ
8ccJ
=14
(8qcc/
8bnL)
8ccJ
[4dd
=15
16ddLL]
16ff
16ee-
16ddJJ
24ccLL
24dd
24ccJ
8gJ
=16
(16gLL
16ccJJ)
4cc
8cc
=17
(16ccLL
16ee-JJ)
4ee-
8gg
=18
(16ggLL
16ff)
(16ff
16ee-JJ)
(16ee-LL
16dd)
(16dd
16ccJJ)
=19
(8qff#X/
4gg)
(8qff#/
4gg)
*>eM
*G:frey
=20:|!
4gg
8r
*>C
24ccLL
24dd
24ccJJ
=21!|:
8.bnL
(16gJk
4cc)
=22
(16ddLL
16ee-
16ff
16ee-JJ)
24ddLL
24ee-
24ddJ
8ccJ
=23
16bnLL
16cc
16dd
16ccJJ
24bLL
24cc
24bJ
8a-J
=24
16gLL
16f
16g
16a-JJ
24gLL
24a-
24gJ
8fJ
=25
8.bnL
(16gJk
4cc)
=26
16ddLL
16ee-
16ff
16ee-JJ
24ddLL
24ee-
24ddJ
8ccJ
=27
16bnLL
16cc
16dd
16ccJJ
24bLL
24cc
24bJ
8a-J
=28
4g
8r
8dd
=29
[2ggt
=30
4.gg]
8ff#X
=31
8ggL
8gg
8gg
8ggJ
=32
8ggL
8gg
8gg
8ggJ
=33:|!
16bnLL
16cc
16dd
16ccJJ
8bL
8a-J
=34
4g
8r
8g
==
*-
